X:1
T:Old Tin Pan
N:From the playing of fiddler Glen Smith (1923-2001, Wirt County, W.Va.),
N:recorded in the field in 1973 by Chris Delaney & Armin Barnett. Smith
N:was born in western Virginia in the Galax/Hillsville area and was a protege
N:of area fiddlers such as Uncle Charley Higgins and Wade Ward. He
N:relocated to West Virginia in 1964.
M:C|
L:1/8
R:Reel
D:Marimac AHS 3, Glen Smith with Dwight Diller - "Say Old Man" (1990)
D: https://www.slippery-hill.com/content/old-tin-pan
Z:Transcribed by Andrew Kuntz
K:D
P:A
D|d2 dd e-ffd|edfd edBd|(AB/c/ d)d fdfd|edB-c d2JdB|
(AB/c/ d)d fdd2|edBd AdBd|A2 A-B d2 dB|AGF>D D3:|
P:B
D|D2 FF AFAF|AGFG AGFE  |DEFG ABAG|FDEF D3(F/E/|
D)EFF AGFG|AGFG AGFE|DEFG ABAG|FDEF D2||
P:A part variation
((3ABc|d2)d2 (ef)fd|eded edBd|A-Bcd fdfd|edB-c d3 (d/B/|
(3A/B/c/ d2) [de]-[df][df][df]|eded edBd|(AB/c/d)A BdAG|[FA]DE-F D2||

